flaticon/essential/settings-5.svg

<svg xmlns="http://www.w3.org/2000/svg" width="32" height="32" viewBox="0 0 24 24">
    <path d="M 22.765625 9.332031 L 20.519531 9.332031 C 20.160156 9.332031 19.859375 9.132812 19.722656 8.800781 C 19.585938 8.46875 19.65625 8.117188 19.910156 7.863281 L 21.496094 6.273438 C 21.730469 6.042969 21.859375 5.730469 21.859375 5.402344 C 21.859375 5.070312 21.730469 4.761719 21.496094 4.527344 L 19.472656 2.503906 C 19.007812 2.035156 18.191406 2.035156 17.726562 2.503906 L 16.136719 4.089844 C 15.882812 4.34375 15.53125 4.414062 15.199219 4.277344 C 14.867188 4.140625 14.667969 3.839844 14.667969 3.480469 L 14.667969 1.234375 C 14.667969 0.554688 14.113281 0 13.429688 0 L 10.570312 0 C 9.886719 0 9.332031 0.554688 9.332031 1.234375 L 9.332031 3.480469 C 9.332031 3.839844 9.132812 4.140625 8.800781 4.277344 C 8.46875 4.417969 8.117188 4.34375 7.863281 4.089844 L 6.273438 2.503906 C 5.808594 2.035156 4.992188 2.035156 4.527344 2.503906 L 2.503906 4.527344 C 2.269531 4.761719 2.140625 5.070312 2.140625 5.402344 C 2.140625 5.730469 2.269531 6.039062 2.503906 6.273438 L 4.089844 7.863281 C 4.34375 8.117188 4.414062 8.46875 4.277344 8.800781 C 4.140625 9.132812 3.839844 9.332031 3.480469 9.332031 L 1.234375 9.332031 C 0.554688 9.332031 0 9.886719 0 10.570312 L 0 13.429688 C 0 14.113281 0.554688 14.667969 1.234375 14.667969 L 3.480469 14.667969 C 3.839844 14.667969 4.140625 14.867188 4.277344 15.199219 C 4.414062 15.53125 4.34375 15.882812 4.089844 16.136719 L 2.503906 17.726562 C 2.269531 17.957031 2.140625 18.269531 2.140625 18.597656 C 2.140625 18.929688 2.269531 19.238281 2.503906 19.472656 L 4.527344 21.496094 C 4.992188 21.964844 5.808594 21.964844 6.273438 21.496094 L 7.863281 19.910156 C 8.117188 19.65625 8.46875 19.585938 8.800781 19.722656 C 9.132812 19.859375 9.332031 20.160156 9.332031 20.519531 L 9.332031 22.765625 C 9.332031 23.445312 9.886719 24 10.570312 24 L 13.429688 24 C 14.113281 24 14.667969 23.445312 14.667969 22.765625 L 14.667969 20.519531 C 14.667969 20.160156 14.863281 19.859375 15.199219 19.722656 C 15.53125 19.585938 15.882812 19.65625 16.136719 19.910156 L 17.726562 21.496094 C 18.191406 21.964844 19.007812 21.964844 19.472656 21.496094 L 21.496094 19.472656 C 21.730469 19.238281 21.859375 18.929688 21.859375 18.597656 C 21.859375 18.269531 21.730469 17.960938 21.496094 17.726562 L 19.910156 16.136719 C 19.652344 15.882812 19.585938 15.53125 19.722656 15.199219 C 19.859375 14.867188 20.160156 14.667969 20.519531 14.667969 L 22.765625 14.667969 C 23.445312 14.667969 24 14.113281 24 13.429688 L 24 10.570312 C 24 9.886719 23.445312 9.332031 22.765625 9.332031 Z M 23.109375 13.429688 C 23.109375 13.621094 22.957031 13.777344 22.765625 13.777344 L 20.519531 13.777344 C 19.796875 13.777344 19.175781 14.191406 18.902344 14.859375 C 18.625 15.523438 18.769531 16.257812 19.28125 16.765625 L 20.867188 18.355469 C 21.003906 18.488281 21.003906 18.710938 20.867188 18.84375 L 18.84375 20.867188 C 18.710938 21.003906 18.488281 21.003906 18.355469 20.867188 L 16.765625 19.28125 C 16.257812 18.769531 15.523438 18.625 14.859375 18.902344 C 14.191406 19.175781 13.777344 19.796875 13.777344 20.519531 L 13.777344 22.765625 C 13.777344 22.957031 13.621094 23.109375 13.429688 23.109375 L 10.570312 23.109375 C 10.378906 23.109375 10.222656 22.957031 10.222656 22.765625 L 10.222656 20.519531 C 10.222656 19.796875 9.808594 19.175781 9.140625 18.902344 C 8.917969 18.808594 8.6875 18.761719 8.460938 18.761719 C 8.007812 18.761719 7.574219 18.941406 7.234375 19.28125 L 5.644531 20.867188 C 5.511719 21.003906 5.289062 21.003906 5.15625 20.867188 L 3.132812 18.84375 C 2.996094 18.707031 2.996094 18.488281 3.132812 18.355469 L 4.71875 16.765625 C 5.230469 16.257812 5.375 15.523438 5.097656 14.859375 C 4.824219 14.191406 4.203125 13.777344 3.480469 13.777344 L 1.234375 13.777344 C 1.042969 13.777344 0.890625 13.621094 0.890625 13.429688 L 0.890625 10.570312 C 0.890625 10.378906 1.042969 10.222656 1.234375 10.222656 L 3.480469 10.222656 C 4.203125 10.222656 4.824219 9.808594 5.097656 9.140625 C 5.375 8.476562 5.230469 7.742188 4.71875 7.234375 L 3.132812 5.644531 C 2.996094 5.511719 2.996094 5.289062 3.132812 5.15625 L 5.15625 3.132812 C 5.289062 2.996094 5.511719 2.996094 5.644531 3.132812 L 7.234375 4.71875 C 7.742188 5.226562 8.472656 5.375 9.140625 5.097656 C 9.808594 4.824219 10.222656 4.203125 10.222656 3.480469 L 10.222656 1.234375 C 10.222656 1.042969 10.378906 0.890625 10.570312 0.890625 L 13.429688 0.890625 C 13.621094 0.890625 13.777344 1.042969 13.777344 1.234375 L 13.777344 3.480469 C 13.777344 4.203125 14.191406 4.824219 14.859375 5.097656 C 15.527344 5.375 16.257812 5.230469 16.765625 4.71875 L 18.355469 3.132812 C 18.488281 2.996094 18.710938 2.996094 18.84375 3.132812 L 20.867188 5.15625 C 21.003906 5.292969 21.003906 5.511719 20.867188 5.644531 L 19.28125 7.234375 C 18.769531 7.742188 18.625 8.476562 18.902344 9.140625 C 19.175781 9.808594 19.796875 10.222656 20.519531 10.222656 L 22.765625 10.222656 C 22.957031 10.222656 23.109375 10.378906 23.109375 10.570312 Z M 23.109375 13.429688"/>
    <path d="M 12 8 C 9.792969 8 8 9.792969 8 12 C 8 14.207031 9.792969 16 12 16 C 14.207031 16 16 14.207031 16 12 C 16 9.792969 14.207031 8 12 8 Z M 12 15.109375 C 10.285156 15.109375 8.890625 13.714844 8.890625 12 C 8.890625 10.285156 10.285156 8.890625 12 8.890625 C 13.714844 8.890625 15.109375 10.285156 15.109375 12 C 15.109375 13.714844 13.714844 15.109375 12 15.109375 Z M 12 15.109375"/>
</svg>

<svg xmlns="http://www.w3.org/2000/svg" width="32" height="32" viewBox="0 0 24 24">
    <path d="M22.766 9.332H20.52a.84.84 0 0 1-.797-.531.84.84 0 0 1 .187-.938l1.586-1.59a1.226 1.226 0 0 0 0-1.746l-2.023-2.023c-.465-.469-1.282-.469-1.746 0l-1.59 1.586a.84.84 0 0 1-.938.187.84.84 0 0 1-.531-.797V1.234C14.668.554 14.113 0 13.43 0h-2.86c-.683 0-1.238.555-1.238 1.234V3.48c0 .36-.2.66-.531.797a.833.833 0 0 1-.938-.187l-1.59-1.586c-.464-.469-1.28-.469-1.746 0L2.504 4.527a1.226 1.226 0 0 0-.363.875c0 .328.129.637.363.871l1.586 1.59a.84.84 0 0 1 .187.938.84.84 0 0 1-.797.531H1.234C.554 9.332 0 9.887 0 10.57v2.86c0 .683.555 1.238 1.234 1.238H3.48c.36 0 .66.2.797.531a.84.84 0 0 1-.187.938l-1.586 1.59a1.226 1.226 0 0 0 0 1.746l2.023 2.023c.465.469 1.282.469 1.746 0l1.59-1.586a.84.84 0 0 1 .938-.187.84.84 0 0 1 .531.797v2.246c0 .68.555 1.234 1.238 1.234h2.86c.683 0 1.238-.555 1.238-1.234V20.52c0-.36.195-.66.531-.797a.84.84 0 0 1 .938.187l1.59 1.586c.464.469 1.28.469 1.746 0l2.023-2.023c.234-.235.363-.543.363-.875 0-.328-.129-.637-.363-.871l-1.586-1.59a.833.833 0 0 1-.187-.938.84.84 0 0 1 .797-.531h2.246c.68 0 1.234-.555 1.234-1.238v-2.86c0-.683-.555-1.238-1.234-1.238zm.343 4.098a.345.345 0 0 1-.343.347H20.52c-.723 0-1.344.414-1.618 1.082a1.716 1.716 0 0 0 .38 1.907l1.585 1.59a.342.342 0 0 1 0 .488l-2.023 2.023a.342.342 0 0 1-.489 0l-1.59-1.586a1.716 1.716 0 0 0-1.906-.379 1.719 1.719 0 0 0-1.082 1.618v2.246a.345.345 0 0 1-.347.343h-2.86a.345.345 0 0 1-.347-.343V20.52c0-.723-.414-1.344-1.082-1.618a1.751 1.751 0 0 0-.68-.14c-.453 0-.887.18-1.227.52l-1.59 1.585a.342.342 0 0 1-.488 0l-2.023-2.023a.342.342 0 0 1 0-.489l1.586-1.59a1.716 1.716 0 0 0 .379-1.906 1.719 1.719 0 0 0-1.618-1.082H1.234a.345.345 0 0 1-.343-.347v-2.86c0-.191.152-.347.343-.347H3.48c.723 0 1.344-.414 1.618-1.082a1.716 1.716 0 0 0-.38-1.907l-1.585-1.59a.342.342 0 0 1 0-.488l2.023-2.023a.342.342 0 0 1 .489 0l1.59 1.586a1.722 1.722 0 0 0 1.906.379 1.719 1.719 0 0 0 1.082-1.618V1.234c0-.191.156-.343.347-.343h2.86c.191 0 .347.152.347.343V3.48c0 .723.414 1.344 1.082 1.618a1.715 1.715 0 0 0 1.907-.38l1.59-1.585a.342.342 0 0 1 .488 0l2.023 2.023a.342.342 0 0 1 0 .489l-1.586 1.59a1.716 1.716 0 0 0-.379 1.906 1.719 1.719 0 0 0 1.618 1.082h2.246c.191 0 .343.156.343.347zm0 0"/>
    <path d="M12 8c-2.207 0-4 1.793-4 4s1.793 4 4 4 4-1.793 4-4-1.793-4-4-4zm0 7.11A3.112 3.112 0 0 1 8.89 12 3.112 3.112 0 0 1 12 8.89 3.112 3.112 0 0 1 15.11 12 3.112 3.112 0 0 1 12 15.11zm0 0"/>
</svg>
